X:1
T:C minor William Billings, 1779 (Revised after 1781)
T:Isaac Watts, 1719 (Psalm 89)  88. 88. (L. M.)
T:Delaware No copyright. Transcribed from the Psalm-Singer's Amusement.
T:No Copyright.  Transcribed from Suffolk Harmony, 1786.
T:No Copyright.  Transcribed from Suffolk Harmony, 1786.
Z:No Copyright.  Transcribed from Suffolk Harmony, 1786.
%%score [ 1 2 3 4 ]
L:1/8
M:4/4
K:Eb
V:1 treble nm="Treble" snm="Tr."
V:2 treble nm="Counter" snm="C."
V:3 treble-8 nm="Tenor" snm="T."
V:4 bass nm="Bass" snm="B."
V:1
 G4 | G4 c4 | B4 A4 | G4 G4 | G4 G4 | G4 G4 | B4 B4 | B4 B4 | B4 B4 | B4 G4 | G4 E4 | G4 G4 | %12
w: 1.~Re-|mem- ber,|Lord, our|mor- tal|state, How|frail our|lives! How|short the|date! Where|is the|man who|draws his|
 F4 F4 | G4 c4 | B4 A4 | A4 G4 | G8 |] %17
w: breath Safe|from dis-|ease, se-|cure from|death?|
V:2
 E4 | D4 E4 | G4 F4 | E4 D4 | E4 E4 | D4 E4 | G4 G4 | G4 F4 | G4 G4 | F4 E4 | D4 C4 | E4 E4 | %12
w: 2.~Lord,|while we|see whole|na- tions|die, Our|flesh and|sense re-|pine and|cry, "Must|death for-|ev- er|rage and|
 D4 D4 | E4 G4 | G4 E4 | F4 D4 | E8 |] %17
w: reign? Or|hast Thou|made man-|kind in|vain?|
V:3
 c4 | =B4 c4 | G4 c4 | c4 =B4 | c4 c4 | =B4 c4 | d4 e4 | e4 d4 | e4 e4 | d4 c4 | B4 G4 | c4 B4 | %12
w: 3.~Where|is Thy|pro- mise|to the|just? Are|not Thy|ser- vants|turned to|dust? But|faith for-|bids these|mourn- ful|
 B4 B4 | B4 e4 | d4 c4 | c4 =B4 | c8 |] %17
w: sighs, And|sees the|sleep- ing|dust a-|rise.|
V:4
 C,4 | G,,4 C,4 | E,4 F,4 | G,4 G,,4 | C,4 C,4 | G,,4 C,4 | G,4 E,4 | B,4 B,,4 | E,4 E,4 | %9
w: 4.~That|glor- ious|day, that|dread- ful|day, Wipes|the re-|proach of|saints a-|way, And|
 B,,4 C,4 | G,,4 C,4 | C,4 E,4 | B,,4 B,,4 | E,4 C,4 | G,4 A,4 | F,4 G,4 | C,8 |] %17
w: clears the|hon- or|of Thy|word: A-|wake, our|souls, and|bless the|Lord.|

